assets/svg/2194.svg

<svg xmlns="http://www.w3.org/2000/svg" viewBox="0 0 64 64" enable-background="new 0 0 64 64"><path fill="#1b75bb" d="M63.918,57.025c0,3.809-3.082,6.895-6.891,6.895H6.888C3.085,63.92,0,60.834,0,57.025V6.891    C0,3.086,3.085,0,6.888,0h50.139c3.809,0,6.891,3.086,6.891,6.891V57.025z"/><path fill="#0867a3" d="m0 48.669v8.356c0 3.809 3.085 6.895 6.888 6.895h50.14c3.809 0 6.891-3.086 6.891-6.895v-50.13c-10.916 39.646-50.15 42.16-63.918 41.778"/><g fill="#fff"><path d="m19.502 18.843l-15.14 13.162 15.13 13.07c2.11-.169 3.762-1.582 3.762-3.304v-2.924h13.719c2.309 0 4.182-1.87 4.182-4.178v-5.422c0-2.309-1.873-4.182-4.182-4.182h-13.719v-2.921c0-1.719-1.645-3.133-3.754-3.302l0 0"/><path d="m44.41 18.843l15.14 13.162-15.13 13.07c-2.112-.169-3.762-1.582-3.762-3.304v-2.924h-13.718c-2.309 0-4.182-1.87-4.182-4.178v-5.422c0-2.309 1.873-4.182 4.182-4.182h13.718v-2.921c0-1.719 1.646-3.133 3.754-3.302l0 0"/></g></svg>

<?xml version="1.0" encoding="UTF-8" standalone="no"?>
<!-- Generator: Adobe Illustrator 16.0.0, SVG Export Plug-In . SVG Version: 6.00 Build 0)  -->

<svg
   xmlns:dc="http://purl.org/dc/elements/1.1/"
   xmlns:cc="http://creativecommons.org/ns#"
   xmlns:rdf="http://www.w3.org/1999/02/22-rdf-syntax-ns#"
   xmlns:svg="http://www.w3.org/2000/svg"
   xmlns="http://www.w3.org/2000/svg"
   xmlns:sodipodi="http://sodipodi.sourceforge.net/DTD/sodipodi-0.dtd"
   xmlns:inkscape="http://www.inkscape.org/namespaces/inkscape"
   version="1.1"
   id="Layer_1"
   x="0px"
   y="0px"
   width="64px"
   height="64px"
   viewBox="0 0 64 64"
   enable-background="new 0 0 64 64"
   xml:space="preserve"
   inkscape:version="0.48.5 r10040"
   sodipodi:docname="2194.svg"
   inkscape:export-filename="D:\TESTINGEMOJI\SVGTEST\2194.png"
   inkscape:export-xdpi="90"
   inkscape:export-ydpi="90"><metadata
   id="metadata3643"><rdf:RDF><cc:Work
       rdf:about=""><dc:format>image/svg+xml</dc:format><dc:type
         rdf:resource="http://purl.org/dc/dcmitype/StillImage" /><dc:title></dc:title></cc:Work></rdf:RDF></metadata><defs
   id="defs3641" /><sodipodi:namedview
   pagecolor="#ffffff"
   bordercolor="#666666"
   borderopacity="1"
   objecttolerance="10"
   gridtolerance="10"
   guidetolerance="10"
   inkscape:pageopacity="0"
   inkscape:pageshadow="2"
   inkscape:window-width="640"
   inkscape:window-height="480"
   id="namedview3639"
   showgrid="false"
   inkscape:zoom="3.6875"
   inkscape:cx="32"
   inkscape:cy="32"
   inkscape:window-x="744"
   inkscape:window-y="235"
   inkscape:window-maximized="0"
   inkscape:current-layer="Layer_1" />
<g
   id="g3627">
	<g
   id="g3629">
		<path
   fill="#1B75BB"
   d="M63.918,57.025c0,3.809-3.082,6.895-6.891,6.895H6.888C3.085,63.92,0,60.834,0,57.025V6.891    C0,3.086,3.085,0,6.888,0h50.139c3.809,0,6.891,3.086,6.891,6.891V57.025z"
   id="path3631" />
		<path
   fill="#0867A3"
   d="M0,48.669v8.356c0,3.809,3.085,6.895,6.888,6.895h50.139c3.809,0,6.891-3.086,6.891-6.895V6.891    C53.002,46.537,13.766,49.05,0,48.669z"
   id="path3633" />
	</g>
	<path
   fill="#FFFFFF"
   d="M19.502,18.843L4.365,32.005l15.129,13.071c2.11-0.169,3.762-1.582,3.762-3.304v-2.924h13.719   c2.309,0,4.182-1.87,4.182-4.178v-5.422c0-2.309-1.873-4.182-4.182-4.182H23.256v-2.921C23.256,20.426,21.611,19.012,19.502,18.843   L19.502,18.843z"
   id="path3635" />
	<path
   fill="#FFFFFF"
   d="M44.415,18.843l15.137,13.162L44.423,45.076c-2.112-0.169-3.762-1.582-3.762-3.304v-2.924H26.943   c-2.309,0-4.182-1.87-4.182-4.178v-5.422c0-2.309,1.873-4.182,4.182-4.182h13.718v-2.921   C40.661,20.426,42.307,19.012,44.415,18.843L44.415,18.843z"
   id="path3637" />
</g>
</svg>
